assets/image-seu-pedido-e-uma-ordem.svg

<svg width="97" height="97" viewBox="0 0 97 97" fill="none" xmlns="http://www.w3.org/2000/svg">
<path d="M34.0724 68.7798C33.937 68.7404 33.7976 68.7168 33.6568 68.7092C35.7873 66.4797 36.9753 63.514 36.9731 60.4303V50.5598C36.9731 50.4735 36.9731 50.3873 36.9731 50.3011C36.9731 50.2148 36.9731 49.9404 36.9731 49.7601V43.4882C36.9731 42.9912 36.7757 42.5146 36.4243 42.1632C36.0729 41.8118 35.5963 41.6144 35.0994 41.6144H22.5555C21.2893 41.6113 20.035 41.8584 18.8646 42.3415C17.6942 42.8247 16.6307 43.5343 15.7354 44.4296C14.8401 45.3249 14.1305 46.3884 13.6473 47.5588C13.1642 48.7292 12.9171 49.9835 12.9202 51.2497V60.4303C12.9181 63.514 14.106 66.4797 16.2365 68.7092C16.0984 68.7174 15.9617 68.7411 15.8288 68.7798C11.506 69.1799 7.48793 71.1784 4.56051 74.3842C1.63308 77.59 0.00689464 81.7726 0 86.1139L0 94.1263C0 94.6232 0.197412 95.0998 0.548807 95.4512C0.900202 95.8026 1.3768 96 1.87374 96H48.0196C48.2663 96.0011 48.5108 95.9534 48.7391 95.8597C48.9673 95.766 49.1748 95.6281 49.3496 95.454C49.5244 95.2799 49.6632 95.073 49.7578 94.8452C49.8525 94.6173 49.9012 94.373 49.9012 94.1263V86.1139C49.8943 81.7726 48.2681 77.59 45.3407 74.3842C42.4133 71.1784 38.3952 69.1799 34.0724 68.7798ZM16.6677 57.4981H29.2116C30.6162 57.5 31.9942 57.1148 33.1943 56.3848V60.4303C33.1943 62.626 32.322 64.7318 30.7694 66.2844C29.2168 67.837 27.111 68.7092 24.9153 68.7092C22.7196 68.7092 20.6138 67.837 19.0612 66.2844C17.5086 64.7318 16.6363 62.626 16.6363 60.4303L16.6677 57.4981ZM29.0078 72.4567L24.9232 76.5335L20.8464 72.4567H29.0078ZM16.6442 51.2889C16.6463 49.7363 17.2639 48.2479 18.3618 47.1501C19.4596 46.0522 20.948 45.4345 22.5006 45.4325H33.2256V49.7993C33.2236 50.8549 32.8033 51.8667 32.0569 52.6132C31.3104 53.3596 30.2986 53.7799 29.243 53.782H16.6991V51.2497L16.6442 51.2889ZM46.1223 92.2917H3.74749V88.5364H11.5325C12.0295 88.5364 12.5061 88.339 12.8575 87.9876C13.2089 87.6362 13.4063 87.1596 13.4063 86.6627C13.4063 86.1657 13.2089 85.6891 12.8575 85.3377C12.5061 84.9863 12.0295 84.7889 11.5325 84.7889H3.81805C4.12364 81.7112 5.46251 78.8277 7.61651 76.6082C9.77051 74.3887 12.6127 72.9641 15.6799 72.5665L23.6217 80.5162C23.9755 80.864 24.4506 81.0608 24.9467 81.065C25.4435 81.0641 25.9197 80.8668 26.2716 80.5162L34.2213 72.5665C37.5152 72.9911 40.542 74.6002 42.7363 77.0932C44.9307 79.5862 46.1427 82.7927 46.1459 86.1139V92.2525L46.1223 92.2917Z" fill="#FFA819"/>
<path d="M80.1712 27.1339C80.0358 27.0946 79.8964 27.0709 79.7557 27.0634C81.8901 24.8466 83.0889 21.893 83.1033 18.8158V8.92175C83.1114 8.83308 83.1114 8.74386 83.1033 8.6552C83.1033 8.47749 83.1033 8.29717 83.1033 8.11424V1.84229C83.0951 1.3467 82.8908 0.874569 82.5352 0.529264C82.1796 0.18396 81.7017 -0.00638348 81.2061 -9.30432e-05H68.6622C67.3982 -0.003185 66.1461 0.242832 64.9773 0.723897C63.8085 1.20496 62.746 1.91165 61.8504 2.80355C60.9549 3.69546 60.2439 4.75511 59.758 5.92194C59.2722 7.08877 59.0211 8.3399 59.019 9.60383V18.8158C59.019 21.9006 60.2098 24.8664 62.3432 27.0947C62.2024 27.1023 62.063 27.1259 61.9276 27.1653C57.6102 27.5649 53.5965 29.5589 50.6699 32.7581C47.7432 35.9573 46.1135 40.1321 46.0988 44.468V52.4804C46.0988 52.9774 46.2962 53.454 46.6476 53.8054C46.999 54.1568 47.4756 54.3542 47.9726 54.3542H63.0644C63.5614 54.3542 64.038 54.1568 64.3894 53.8054C64.7408 53.454 64.9382 52.9774 64.9382 52.4804C64.9382 51.9835 64.7408 51.5069 64.3894 51.1555C64.038 50.8041 63.5614 50.6067 63.0644 50.6067H49.8541V44.468C49.8559 41.1472 51.0675 37.9409 53.2623 35.4488C55.4572 32.9568 58.4848 31.3497 61.7787 30.9285L69.7205 38.8703C70.0733 39.2222 70.5512 39.4198 71.0494 39.4198C71.5477 39.4198 72.0256 39.2222 72.3783 38.8703L80.3201 30.9285C83.6148 31.3496 86.6433 32.9563 88.8394 35.4482C91.0355 37.9401 92.2488 41.1465 92.2525 44.468V50.6067H78.4386C77.9416 50.6067 77.465 50.8041 77.1136 51.1555C76.7622 51.5069 76.5648 51.9835 76.5648 52.4804C76.5648 52.9774 76.7622 53.454 77.1136 53.8054C77.465 54.1568 77.9416 54.3542 78.4386 54.3542H94.1184C94.6154 54.3542 95.092 54.1568 95.4434 53.8054C95.7948 53.454 95.9922 52.9774 95.9922 52.4804V44.468C95.9855 40.1279 94.3604 35.9464 91.4346 32.7408C88.5088 29.5351 84.4926 27.5359 80.1712 27.1339ZM62.7744 18.8158V15.8523H75.3183C76.7217 15.8529 78.0986 15.4707 79.3009 14.7468V18.8158C79.3351 19.9239 79.1463 21.0276 78.7458 22.0613C78.3452 23.0951 77.7412 24.0379 76.9694 24.8338C76.1976 25.6297 75.2738 26.2625 74.2529 26.6947C73.2319 27.1268 72.1345 27.3495 71.0259 27.3495C69.9172 27.3495 68.8199 27.1268 67.7989 26.6947C66.778 26.2625 65.8542 25.6297 65.0824 24.8338C64.3106 24.0379 63.7066 23.0951 63.306 22.0613C62.9055 21.0276 62.7167 19.9239 62.7508 18.8158H62.7744ZM62.7744 9.63519C62.7764 8.08396 63.393 6.59674 64.4892 5.49912C65.5853 4.4015 67.0717 3.7829 68.623 3.77876H79.3245V8.1456C79.3245 9.2026 78.9051 10.2164 78.1584 10.9646C77.4118 11.7127 76.3988 12.134 75.3418 12.1361H62.7979V9.60383L62.7744 9.63519ZM71.0533 34.8955L66.9687 30.8109H75.1301L71.0533 34.8955Z" fill="#FFA819"/>
<path d="M72.3783 53.8054C72.5523 53.6314 72.6903 53.4248 72.7845 53.1975C72.8786 52.9702 72.9271 52.7265 72.9271 52.4804C72.9271 52.2344 72.8786 51.9907 72.7845 51.7634C72.6903 51.536 72.5523 51.3295 72.3783 51.1555C72.1162 50.8934 71.7824 50.715 71.4189 50.6427C71.0554 50.5704 70.6787 50.6075 70.3363 50.7493C69.9939 50.8911 69.7013 51.1313 69.4954 51.4394C69.2895 51.7476 69.1796 52.1098 69.1796 52.4804C69.1796 52.851 69.2895 53.2133 69.4954 53.5214C69.7013 53.8296 69.9939 54.0697 70.3363 54.2116C70.6787 54.3534 71.0554 54.3905 71.4189 54.3182C71.7824 54.2459 72.1162 54.0674 72.3783 53.8054Z" fill="#FFA819"/>
<path d="M9.40792 35.2797H32.9277C34.7888 35.2875 36.6096 34.7384 38.1562 33.7032C39.7027 32.668 40.9044 31.1938 41.6065 29.4703H48.8193C49.1903 29.4693 49.5527 29.3586 49.861 29.1521C50.1693 28.9457 50.4097 28.6527 50.5519 28.31C50.6949 27.9683 50.7324 27.5917 50.6598 27.2285C50.5871 26.8653 50.4076 26.5321 50.1442 26.2716L42.3043 18.4317V9.40792C42.3043 6.91821 41.3174 4.53001 39.5599 2.76658C37.8023 1.00315 35.4174 0.00829904 32.9277 0L9.40792 0C6.91279 0 4.51984 0.991189 2.75552 2.75552C0.991189 4.51984 0 6.91279 0 9.40792L0 25.8718C0 28.3669 0.991189 30.7599 2.75552 32.5242C4.51984 34.2885 6.91279 35.2797 9.40792 35.2797ZM3.74749 9.40792C3.74438 8.66371 3.88866 7.92625 4.17203 7.23809C4.45539 6.54993 4.87221 5.92469 5.39845 5.39845C5.92469 4.87221 6.54993 4.45539 7.23809 4.17203C7.92625 3.88866 8.66371 3.74438 9.40792 3.74749H32.9277C33.6686 3.74954 34.4019 3.89764 35.0855 4.18332C35.7691 4.46899 36.3897 4.88663 36.9118 5.41235C37.4339 5.93808 37.8472 6.56157 38.1281 7.24717C38.4091 7.93276 38.5521 8.66701 38.549 9.40792V19.1686C38.5477 19.4149 38.5955 19.6589 38.6898 19.8864C38.784 20.114 38.9227 20.3204 39.0978 20.4936L44.2878 25.6836H40.2267C39.8047 25.6872 39.3963 25.8332 39.0677 26.0979C38.739 26.3625 38.5092 26.7304 38.4157 27.1419C38.1337 28.3846 37.4361 29.4939 36.4383 30.2865C35.4404 31.0791 34.202 31.5075 32.9277 31.5009H9.40792C8.66635 31.504 7.93146 31.3607 7.24536 31.0793C6.55925 30.7979 5.93541 30.3839 5.40958 29.861C4.88376 29.338 4.46628 28.7165 4.18107 28.032C3.89585 27.3474 3.74851 26.6134 3.74749 25.8718V9.40792Z" fill="#FFA819"/>
<path d="M86.6234 60.7516H63.1036C61.2381 60.737 59.4112 61.283 57.8596 62.3188C56.308 63.3546 55.1032 64.8325 54.4013 66.561H47.1886C46.8147 66.5578 46.4485 66.6666 46.1369 66.8732C45.8253 67.0799 45.5827 67.375 45.4403 67.7206C45.2978 68.0663 45.262 68.4467 45.3374 68.8128C45.4129 69.179 45.5961 69.5142 45.8636 69.7754L53.7035 77.6153V86.6313C53.7035 89.1264 54.6947 91.5193 56.4591 93.2837C58.2234 95.048 60.6163 96.0392 63.1115 96.0392H86.6313C89.1264 96.0392 91.5193 95.048 93.2837 93.2837C95.048 91.5193 96.0392 89.1264 96.0392 86.6313V70.1674C96.0402 68.9306 95.7974 67.7058 95.3246 66.5629C94.8517 65.4201 94.1582 64.3817 93.2837 63.5071C92.4091 62.6326 91.3707 61.9391 90.2279 61.4663C89.0851 60.9934 87.8602 60.7506 86.6234 60.7516ZM92.2525 86.6234C92.2504 88.1157 91.6567 89.5463 90.6015 90.6015C89.5463 91.6567 88.1157 92.2504 86.6234 92.2525H63.1036C61.6113 92.2504 60.1808 91.6567 59.1256 90.6015C58.0704 89.5463 57.4766 88.1157 57.4746 86.6234V76.8313C57.4746 76.5853 57.4261 76.3416 57.3319 76.1143C57.2378 75.8869 57.0998 75.6804 56.9258 75.5064L51.7436 70.3085H55.8047C56.2279 70.3074 56.6384 70.1637 56.9699 69.9005C57.3013 69.6373 57.5344 69.2701 57.6314 68.8581C57.912 67.6147 58.6092 66.5046 59.6074 65.7117C60.6055 64.9189 61.8446 64.4911 63.1193 64.4991H86.6391C88.1314 64.5012 89.562 65.0949 90.6172 66.1501C91.6724 67.2053 92.2661 68.6359 92.2682 70.1282L92.2525 86.6234Z" fill="#FFA819"/>
<path d="M80.6259 73.3818L75.6397 78.3993L73.2877 76.0865C72.9363 75.7351 72.4597 75.5377 71.9628 75.5377C71.4658 75.5377 70.9892 75.7351 70.6378 76.0865C70.2864 76.4379 70.089 76.9145 70.089 77.4115C70.089 77.9084 70.2864 78.385 70.6378 78.7364L74.3147 82.3193C74.6676 82.6685 75.1433 82.8655 75.6397 82.8681C75.8858 82.8685 76.1296 82.8202 76.357 82.7261C76.5844 82.6319 76.7909 82.4936 76.9646 82.3193L83.2366 76.0081C83.589 75.6567 83.7874 75.1797 83.7882 74.682C83.7889 74.1844 83.5919 73.7068 83.2405 73.3543C82.8891 73.0019 82.4121 72.8035 81.9144 72.8027C81.4167 72.802 80.9391 72.999 80.5867 73.3504L80.6259 73.3818Z" fill="#FFA819"/>
<path d="M18.565 14.7547C19.0619 14.7547 19.5385 14.5573 19.8899 14.2059C20.2413 13.8545 20.4387 13.3779 20.4387 12.881C20.4365 12.5044 20.5127 12.1314 20.6625 11.7859C20.8124 11.4403 21.0325 11.1297 21.3089 10.874C21.6187 10.5882 21.99 10.3775 22.3941 10.2579C22.7983 10.1384 23.2244 10.1133 23.6398 10.1845C24.0552 10.2558 24.4486 10.4215 24.7898 10.6688C25.131 10.9162 25.4109 11.2386 25.6077 11.6113C25.8046 11.9839 25.9133 12.3967 25.9253 12.818C25.9374 13.2393 25.8525 13.6577 25.6773 14.041C25.502 14.4242 25.2411 14.7621 24.9146 15.0286C24.5881 15.2951 24.2048 15.483 23.7942 15.5779C23.0889 15.7275 22.4567 16.1156 22.004 16.6768C21.5513 17.238 21.3059 17.938 21.3089 18.659V19.6625C21.3398 20.1395 21.551 20.5869 21.8998 20.9139C22.2485 21.2408 22.7086 21.4227 23.1866 21.4227C23.6646 21.4227 24.1247 21.2408 24.4734 20.9139C24.8222 20.5869 25.0334 20.1395 25.0643 19.6625V19.1137C26.2168 18.7651 27.2498 18.1032 28.0482 17.2018C28.8465 16.3004 29.3787 15.195 29.5855 14.0088C29.7922 12.8225 29.6654 11.6022 29.2191 10.4839C28.7728 9.36554 28.0246 8.39316 27.058 7.6752C26.0914 6.95723 24.9443 6.52191 23.7447 6.41778C22.5451 6.31366 21.3402 6.54482 20.2643 7.08549C19.1884 7.62615 18.2839 8.45507 17.6516 9.47979C17.0193 10.5045 16.6841 11.6847 16.6834 12.8888C16.6844 13.1349 16.7339 13.3783 16.829 13.6053C16.9241 13.8322 17.063 14.0382 17.2377 14.2115C17.4124 14.3847 17.6196 14.5219 17.8473 14.6151C18.075 14.7083 18.3189 14.7558 18.565 14.7547Z" fill="#FFA819"/>
<path d="M23.1905 24.9545C22.6941 24.957 22.2184 25.154 21.8656 25.5033C21.5142 25.8547 21.3168 26.3313 21.3168 26.8282C21.3168 27.3252 21.5142 27.8018 21.8656 28.1532C22.217 28.5046 22.6936 28.702 23.1905 28.702C23.6875 28.702 24.1641 28.5046 24.5155 28.1532C24.7775 27.8911 24.956 27.5572 25.0283 27.1938C25.1006 26.8303 25.0635 26.4535 24.9217 26.1112C24.7798 25.7688 24.5397 25.4761 24.2315 25.2702C23.9234 25.0644 23.5611 24.9545 23.1905 24.9545Z" fill="#FFA819"/>
<path d="M19.0275 84.7496C18.5316 84.7546 18.0568 84.9513 17.7026 85.2984C17.439 85.5614 17.2593 85.8967 17.1863 86.2618C17.1134 86.6269 17.1504 87.0054 17.2926 87.3495C17.4349 87.6936 17.6761 87.9877 17.9856 88.1947C18.2951 88.4016 18.6591 88.5121 19.0314 88.5121C19.4038 88.5121 19.7677 88.4016 20.0773 88.1947C20.3868 87.9877 20.628 87.6936 20.7702 87.3495C20.9125 87.0054 20.9495 86.6269 20.8765 86.2618C20.8036 85.8967 20.6239 85.5614 20.3603 85.2984C20.0037 84.9501 19.526 84.7534 19.0275 84.7496Z" fill="#FFA819"/>
</svg>

<svg xmlns="http://www.w3.org/2000/svg" width="97" height="97" fill="#ffa819" xmlns:v="https://vecta.io/nano"><path d="M34.07 68.78c-.14-.04-.27-.06-.42-.07a12 12 0 0 0 3.32-8.28V43.5c0-.5-.2-.97-.55-1.32s-.83-.55-1.32-.55H22.56a9.6 9.6 0 0 0-9.64 9.64v9.18c0 3.08 1.2 6.05 3.32 8.28-.14.01-.27.03-.4.07-4.32.4-8.34 2.4-11.27 5.6A17.4 17.4 0 0 0 0 86.1v8c0 .5.2.97.55 1.32s.83.55 1.32.55h46.15c.25 0 .5-.05.72-.14s.44-.23.6-.4.3-.38.4-.6.14-.47.14-.72v-8c-.01-4.34-1.63-8.52-4.56-11.73s-6.95-5.2-11.27-5.6zM16.67 57.5H29.2c1.4 0 2.78-.38 3.98-1.1v4.05a8.3 8.3 0 0 1-8.28 8.28 8.3 8.3 0 0 1-8.28-8.28l.03-2.93zM29 72.46l-4.08 4.08-4.08-4.08H29zM16.64 51.3c0-1.55.62-3.04 1.72-4.14a5.9 5.9 0 0 1 4.14-1.72h10.73v4.37a4 4 0 0 1-3.98 3.98H16.7v-2.53l-.05.04zm29.48 41H3.75v-3.76h7.8c.5 0 .97-.2 1.32-.55s.55-.83.55-1.32-.2-.97-.55-1.33-.83-.55-1.32-.55h-7.7a13.7 13.7 0 0 1 11.86-12.22l7.94 7.95c.35.35.83.54 1.32.55.5 0 .97-.2 1.32-.55l7.95-7.95c3.3.42 6.32 2.03 8.52 4.53s3.4 5.7 3.4 9.02l-.02 6.18zm34.05-65.17c-.14-.04-.27-.06-.42-.07 2.13-2.22 3.33-5.17 3.35-8.25V8.9c.01-.1.01-.18 0-.27v-6.8c-.01-.5-.2-.97-.57-1.3S81.7-.01 81.2 0H68.66a9.6 9.6 0 0 0-9.64 9.6v9.2c0 3.08 1.2 6.05 3.32 8.28-.14.01-.28.03-.42.07-4.32.4-8.33 2.4-11.26 5.6a17.4 17.4 0 0 0-4.57 11.7v8c0 .5.2.97.55 1.32s.83.55 1.33.55h15.1c.5 0 .97-.2 1.32-.55s.55-.83.55-1.32-.2-.97-.55-1.32-.83-.55-1.32-.55h-13.2v-6.14a13.6 13.6 0 0 1 3.4-9.02c2.2-2.5 5.22-4.1 8.52-4.52l7.94 7.94c.35.35.83.55 1.33.55s.98-.2 1.33-.55l7.94-7.94c3.3.42 6.32 2.03 8.52 4.52a13.6 13.6 0 0 1 3.4 9.02v6.14h-13.8c-.5 0-.97.2-1.32.55s-.55.83-.55 1.32.2.97.55 1.32.83.55 1.32.55h15.68a1.9 1.9 0 0 0 1.33-.55c.36-.35.55-.83.55-1.32v-8c-.01-4.34-1.63-8.52-4.56-11.73a17.4 17.4 0 0 0-11.26-5.6zm-17.4-8.32v-2.96H75.3a7.7 7.7 0 0 0 3.98-1.11v4.07a8.3 8.3 0 0 1-8.27 8.54 8.3 8.3 0 0 1-8.27-8.54h.02zm0-9.18c0-1.55.62-3.04 1.7-4.14a5.8 5.8 0 0 1 4.13-1.72h10.7v4.37a4 4 0 0 1-3.98 3.99H62.8V9.6l-.02.03zm8.28 25.26l-4.08-4.08h8.16l-4.08 4.08zm1.33 18.9c.17-.17.3-.38.4-.6s.14-.47.14-.72-.05-.5-.14-.72-.23-.43-.4-.6c-.26-.26-.6-.44-.96-.5s-.74-.04-1.08.1-.63.38-.84.7-.32.67-.32 1.04.1.73.32 1.04.5.55.84.7.72.18 1.08.1.7-.25.96-.5zM9.4 35.28h23.52a9.3 9.3 0 0 0 5.23-1.58 9.3 9.3 0 0 0 3.45-4.23h7.2c.37 0 .73-.1 1.04-.32s.55-.5.7-.84.18-.72.1-1.08-.25-.7-.52-.96l-7.84-7.84V9.4a9.4 9.4 0 0 0-2.74-6.64A9.4 9.4 0 0 0 32.93 0H9.4A9.4 9.4 0 0 0 0 9.41v16.46a9.4 9.4 0 0 0 9.41 9.41zM3.75 9.4a5.8 5.8 0 0 1 .42-2.17c.28-.7.7-1.3 1.23-1.84s1.15-.94 1.84-1.23a5.4 5.4 0 0 1 2.17-.42h23.52c.74 0 1.47.15 2.16.44s1.3.7 1.83 1.23a5.6 5.6 0 0 1 1.22 1.83 5.7 5.7 0 0 1 .42 2.16v9.76c0 .25.05.5.14.72s.23.43.4.6l5.2 5.2h-4.06c-.42 0-.83.15-1.16.4a1.8 1.8 0 0 0-.65 1.04 5.6 5.6 0 0 1-5.49 4.36H9.4a5.7 5.7 0 0 1-2.16-.42 5.9 5.9 0 0 1-1.84-1.22 5.4 5.4 0 0 1-1.23-1.83c-.3-.7-.43-1.42-.43-2.16V9.4zm82.87 51.35H63.1a9.3 9.3 0 0 0-8.7 5.81h-7.2c-.37 0-.74.1-1.05.3s-.55.5-.7.85a1.8 1.8 0 0 0-.1 1.1c.08.37.26.7.53.96l7.84 7.84v9.02a9.4 9.4 0 0 0 9.41 9.41h23.52a9.4 9.4 0 0 0 9.41-9.41V70.17a9.4 9.4 0 0 0-9.42-9.42zm5.63 25.87c0 1.5-.6 2.92-1.65 3.98s-2.5 1.65-3.98 1.65H63.1c-1.5 0-2.92-.6-3.98-1.65s-1.65-2.5-1.65-3.98v-9.8c0-.25-.05-.5-.14-.72s-.23-.43-.4-.6l-5.18-5.2h4.06c.42 0 .83-.14 1.17-.4s.56-.63.66-1.04a5.6 5.6 0 0 1 5.49-4.36h23.52c1.5 0 2.92.6 3.98 1.65s1.65 2.5 1.65 3.98l-.02 16.5zM80.63 73.38l-5 5.02-2.35-2.3c-.35-.35-.83-.55-1.32-.55s-.97.2-1.33.55-.55.83-.55 1.33.2.97.55 1.32l3.68 3.58a1.9 1.9 0 0 0 1.33.55c.25 0 .5-.05.72-.14s.43-.23.6-.4l6.27-6.3c.35-.35.55-.83.55-1.33s-.2-.98-.55-1.33-.83-.55-1.33-.55-.98.2-1.33.55l.04.03zM18.57 14.75c.5 0 .97-.2 1.32-.55s.55-.83.55-1.32a2.7 2.7 0 0 1 .87-2.01 2.5 2.5 0 0 1 1.1-.62 2.8 2.8 0 0 1 1.25-.07c.42.07.8.24 1.15.48s.62.57.82.94.3.8.32 1.2-.07.84-.25 1.22a3.1 3.1 0 0 1-.76 1c-.32.28-.7.45-1.12.55a3.2 3.2 0 0 0-1.8 1.1 3.1 3.1 0 0 0-.7 1.98v1c.03.48.24.92.6 1.25s.8.5 1.3.5.94-.18 1.3-.5.56-.77.6-1.25v-.55a6.5 6.5 0 0 0 1.99-11.43 6.5 6.5 0 0 0-10.37 5.21c0 .25.05.5.15.72s.23.43.4.6.38.3.6.4.47.14.72.14zm4.63 10.2a1.9 1.9 0 0 0-1.32.55c-.35.35-.55.83-.55 1.32s.2.97.55 1.32.83.55 1.32.55.97-.2 1.32-.55c.26-.26.44-.6.5-.96s.04-.74-.1-1.08-.38-.64-.7-.84-.67-.32-1.04-.32zm-4.17 59.8c-.5 0-.97.2-1.32.55-.26.26-.44.6-.52.96a1.9 1.9 0 0 0 .1 1.1c.14.36.38.64.7.85s.67.32 1.05.32.74-.1 1.05-.32a2 2 0 0 0 .7-.85 1.8 1.8 0 0 0 .1-1.1c-.08-.38-.25-.7-.52-.96a1.9 1.9 0 0 0-1.33-.55z"/></svg>
